usr/share/icons/Yaru-Cinnamon/scalable/actions/find-location-symbolic.svg

<svg version="1.1" viewBox="0 0 16 16" xmlns="http://www.w3.org/2000/svg">
 <path d="m8 1h-1v1.025c-3.1927 0.24697-5.7299 2.7825-5.979 5.975h-1.021v1h1.025c0.24697 3.1927 2.7825 5.7299 5.975 5.979v1.021h1v-1.025c3.1927-0.24697 5.7299-2.7825 5.979-5.975h1.021v-1h-1.025c-0.24697-3.1927-2.7825-5.7299-5.975-5.979zm-0.5 2c3.0376 0 5.5 2.4624 5.5 5.5 0 3.0376-2.4624 5.5-5.5 5.5-3.0376 0-5.5-2.4624-5.5-5.5 0-3.0376 2.4624-5.5 5.5-5.5zm0 3c-1.3807 0-2.5 1.1193-2.5 2.5s1.1193 2.5 2.5 2.5 2.5-1.1193 2.5-2.5-1.1193-2.5-2.5-2.5z" fill="#808080"/>
</svg>

<svg viewBox="0 0 16 16" xmlns="http://www.w3.org/2000/svg">
 <path d="M8 .75L7 1v1.025A6.5 6.5 0 0 0 1.021 8H0v1h1.025A6.5 6.5 0 0 0 7 14.979V16h1v-1.025A6.5 6.5 0 0 0 13.979 9H15V8h-1.025A6.5 6.5 0 0 0 8 2.021zM7.5 3A5.5 5.5 0 0 1 13 8.5 5.5 5.5 0 0 1 7.5 14 5.5 5.5 0 0 1 2 8.5 5.5 5.5 0 0 1 7.5 3zm0 3A2.5 2.5 0 0 0 5 8.5 2.5 2.5 0 0 0 7.5 11 2.5 2.5 0 0 0 10 8.5 2.5 2.5 0 0 0 7.5 6z" fill="gray"/>
</svg>
